X: 4215
T: Blueberry Ball, The
R: jig
M: 6/8
K: Cmajor
|:A|Gcc cee|dBc dde|geg fdc|BdB dBA|
Gcc cee|dBc dde|geg fdB|1 c3- cc:|2 c3||
|:e2 f|gee gag|fdd fdf|ecc gcc|BdB dBA|
Gcc cee|dBc dde|geg fdB|1 c3:|2 c3 cc||

